assets/icons/qvision/brightness_5.svg

<svg width="24" height="24" viewBox="0 0 24 24" fill="none" xmlns="http://www.w3.org/2000/svg">
<g clip-path="url(#clip0_147_3254)">
<path d="M19.9999 15.31L23.3099 12L19.9999 8.69V4H15.3099L11.9999 0.690002L8.68994 4H3.99994V8.69L0.689941 12L3.99994 15.31V20H8.68994L11.9999 23.31L15.3099 20H19.9999V15.31ZM11.9999 18C8.68994 18 5.99994 15.31 5.99994 12C5.99994 8.69 8.68994 6 11.9999 6C15.3099 6 17.9999 8.69 17.9999 12C17.9999 15.31 15.3099 18 11.9999 18Z" fill="#323232"/>
</g>
<defs>
<clipPath id="clip0_147_3254">
<rect width="24" height="24" fill="white"/>
</clipPath>
</defs>
</svg>

<svg xmlns="http://www.w3.org/2000/svg" height="24" viewBox="0 0 24 24" width="24"><path d="M0 0h24v24H0z" fill="none"/><path d="M20 15.31L23.31 12 20 8.69V4h-4.69L12 .69 8.69 4H4v4.69L.69 12 4 15.31V20h4.69L12 23.31 15.31 20H20v-4.69zM12 18c-3.31 0-6-2.69-6-6s2.69-6 6-6 6 2.69 6 6-2.69 6-6 6z"/></svg>
